; generated by PrusaSlicer 2.5.2 on 2023-04-22 at 09:59:21 UTC

; 

; external perimeters extrusion width = 0.42mm
; perimeters extrusion width = 0.44mm
; infill extrusion width = 0.44mm
; solid infill extrusion width = 0.44mm
; top infill extrusion width = 0.40mm
; first layer extrusion width = 0.42mm

M107
;TYPE:Custom
G90 ; use absolute coordinates
M83 ; extruder relative mode
M140 S60 ; set final bed temp
M104 S150 ; set temporary nozzle temp to prevent oozing during homing
G4 S10 ; allow partial nozzle warmup
G28 ; home all axis
G1 Z50 F240
G1 X2 Y10 F3000
M104 S215 ; set final nozzle temp
M190 S60 ; wait for bed temp to stabilize
M109 S215 ; wait for nozzle temp to stabilize
G1 Z0.28 F240
G92 E0
G1 Y140 E10 F1500 ; prime the nozzle
G1 X2.3 F5000
G92 E0
G1 Y10 E10 F1200 ; prime the nozzle
G92 E0
G21 ; set units to millimeters
G90 ; use absolute coordinates
M83 ; use relative distances for extrusion
; Filament gcode
M107
;LAYER_CHANGE
;Z:0.2
;HEIGHT:0.2
;BEFORE_LAYER_CHANGE
G92 E0
;0.2


G1 E-5 F3600
G1 Z.2 F9000
;AFTER_LAYER_CHANGE
;0.2
G1 X92.623 Y11.799
G1 E5 F2400
M204 S500
;TYPE:Skirt/Brim
;WIDTH:0.42
G1 F1200
G1 X93.017 Y10.216 E.05115
G1 X94.107 Y9.002 E.05115
G1 X96 Y8.422 E.06207
G1 X125.145 Y8.43 E.91381
G1 X126.887 Y8.589 E.05487
G1 X128.59 Y8.992 E.05485
G1 X130.221 Y9.629 E.0549
G1 X131.753 Y10.483 E.055
G1 X132.826 Y11.256 E.04147
G1 X134.142 Y12.456 E.05584
G1 X135.544 Y14.15 E.06894
G1 X136.485 Y15.667 E.05597
G1 X137.246 Y17.292 E.05626
G1 X137.714 Y18.634 E.04458
G1 X138.135 Y20.4 E.05691
G1 X138.377 Y22.577 E.06867
G1 X138.377 Y24.021 E.04528
G1 X138.197 Y25.827 E.0569
G1 X137.819 Y27.597 E.05675
G1 X137.097 Y29.666 E.0687
G1 X136.291 Y31.279 E.05657
G1 X135.544 Y32.448 E.04348
G1 X134.432 Y33.833 E.05567
G1 X133.163 Y35.063 E.05541
G1 X131.37 Y36.354 E.06929
G1 X129.798 Y37.159 E.05538
G1 X128.59 Y37.605 E.04039
G1 X126.887 Y38.009 E.05485
G1 X125.145 Y38.167 E.05487
G1 X96 Y38.176 E.91381
G1 X94.417 Y37.782 E.05115
G1 X93.203 Y36.692 E.05115
G1 X92.623 Y34.799 E.06207
G1 X92.623 Y11.859 E.71927
G1 E-3.5 F3600
;WIPE_START
G1 F7200
G1 X93.017 Y10.216 E-.80263
G1 X93.893 Y9.241 E-.62237
;WIPE_END
G1 E-.075 F3600
G1 X97.064 Y12.863 F9000
G1 E5 F2400
;TYPE:Perimeter
;WIDTH:0.419999
G1 F1200
G1 X124.866 Y12.863 E.8717
G1 X126.02 Y12.946 E.03629
G1 X127.121 Y13.184 E.03532
G1 X128.19 Y13.579 E.03575
G1 X129.212 Y14.126 E.03634
G1 X130.171 Y14.818 E.03707
G1 X131.051 Y15.645 E.03787
G1 X131.837 Y16.596 E.03868
G1 X132.515 Y17.657 E.03947
G1 X133.072 Y18.81 E.04018
G1 X133.5 Y20.038 E.04077
G1 X133.697 Y20.909 E.02797
G1 X133.814 Y21.539 E.0201
;WIDTH:0.459653
G1 X133.864 Y22.169 E.0219
;WIDTH:0.505476
G1 X133.85 Y22.253 E.00327
;WIDTH:0.551299
G1 X133.837 Y22.336 E.00359
;WIDTH:0.597122
G1 X133.823 Y22.42 E.00392
;WIDTH:0.642944
G1 X133.809 Y22.504 E.00424
G1 X133.764 Y22.437 E.00401
;WIDTH:0.597122
G1 X133.72 Y22.37 E.0037
;WIDTH:0.551299
G1 X133.675 Y22.304 E.0034
;WIDTH:0.505476
G1 X133.63 Y22.237 E.00309
;WIDTH:0.459653
G1 X133.334 Y21.679 E.0219
;WIDTH:0.419999
G1 X133.009 Y21.25 E.01685
G1 X132.662 Y20.941 E.01458
G1 X132.265 Y20.695 E.01464
G1 X131.827 Y20.526 E.01472
G1 X131.363 Y20.441 E.0148
G1 X130.967 Y20.443 E.0124
G1 X130.433 Y20.54 E.01702
G1 X129.987 Y20.724 E.01514
G1 X129.554 Y21.009 E.01624
G1 X129.146 Y21.426 E.01829
G1 X128.858 Y21.877 E.0168
G1 X128.623 Y22.468 E.01994
G1 X128.558 Y22.747 E.00896
G1 X128.51 Y23.393 E.02031
G1 X128.532 Y23.674 E.00882
G1 X128.675 Y24.298 E.02009
G1 X128.888 Y24.788 E.01673
G1 X129.115 Y25.128 E.01283
G1 X129.464 Y25.51 E.01623
G1 X129.838 Y25.788 E.01461
G1 X130.257 Y25.997 E.01468
G1 X130.71 Y26.125 E.01476
G1 X131.181 Y26.165 E.01483
G1 X131.653 Y26.114 E.01487
G1 X132.106 Y25.975 E.01487
G1 X132.524 Y25.753 E.01484
G1 X133.009 Y25.347 E.01983
G1 X133.334 Y24.919 E.01685
;WIDTH:0.467621
G1 X133.424 Y24.782 E.0058
;WIDTH:0.515242
G1 X133.515 Y24.645 E.00645
;WIDTH:0.562864
G1 X133.605 Y24.508 E.0071
;WIDTH:0.610485
G1 X133.695 Y24.371 E.00775
;WIDTH:0.658106
G1 X133.786 Y24.234 E.0084
G1 X133.797 Y24.297 E.00329
;WIDTH:0.621075
G1 X133.809 Y24.361 E.0031
;WIDTH:0.584044
G1 X133.821 Y24.424 E.0029
;WIDTH:0.547012
G1 X133.81 Y24.708 E.01193
;WIDTH:0.504675
G1 X133.8 Y24.993 E.01092
;WIDTH:0.462337
G1 X133.79 Y25.277 E.00992
;WIDTH:0.419999
G1 X133.5 Y26.559 E.04121
G1 X133.072 Y27.787 E.04077
G1 X132.515 Y28.941 E.04018
G1 X131.837 Y30.001 E.03947
G1 X131.051 Y30.953 E.03868
G1 X130.171 Y31.78 E.03787
G1 X129.212 Y32.472 E.03707
G1 X128.19 Y33.018 E.03634
G1 X127.121 Y33.413 E.03575
G1 X126.02 Y33.652 E.03532
G1 X124.866 Y33.735 E.03629
G1 X97.064 Y33.735 E.8717
G1 X97.064 Y12.923 E.65253
G1 X96.687 Y12.486 F9000
G1 F1200
G1 X124.879 Y12.486 E.88394
G1 X126.074 Y12.571 E.03755
G1 X127.227 Y12.821 E.03699
G1 X128.345 Y13.235 E.03739
G1 X129.413 Y13.805 E.03795
G1 X130.412 Y14.526 E.03863
G1 X131.327 Y15.387 E.03938
G1 X132.142 Y16.374 E.04015
G1 X132.844 Y17.473 E.04089
G1 X133.421 Y18.666 E.04156
G1 X133.863 Y19.934 E.04212
G1 X134.162 Y21.258 E.04254
G1 X134.313 Y22.615 E.04281
G1 X134.313 Y23.983 E.04289
G1 X134.162 Y25.34 E.04281
G1 X133.863 Y26.663 E.04254
G1 X133.421 Y27.932 E.04212
G1 X132.844 Y29.125 E.04156
G1 X132.142 Y30.224 E.04089
G1 X131.327 Y31.211 E.04015
G1 X130.412 Y32.071 E.03938
G1 X129.413 Y32.792 E.03863
G1 X128.345 Y33.363 E.03795
G1 X127.227 Y33.776 E.03739
G1 X126.074 Y34.026 E.03699
G1 X124.879 Y34.112 E.03755
G1 X96.687 Y34.112 E.88394
G1 X96.687 Y12.546 E.67618
G1 X96.31 Y12.109 F9000
;TYPE:External perimeter
G1 F1200
G1 X124.893 Y12.109 E.89619
G1 X126.127 Y12.197 E.03882
G1 X127.333 Y12.458 E.03866
G1 X128.5 Y12.89 E.03903
G1 X129.613 Y13.485 E.03955
G1 X130.652 Y14.235 E.04019
G1 X131.602 Y15.128 E.04089
G1 X132.447 Y16.151 E.04161
G1 X133.174 Y17.288 E.04231
G1 X133.77 Y18.521 E.04294
G1 X134.226 Y19.831 E.04347
G1 X134.535 Y21.195 E.04387
G1 X134.69 Y22.594 E.04412
G1 X134.69 Y24.004 E.0442
G1 X134.535 Y25.402 E.04412
G1 X134.226 Y26.767 E.04387
G1 X133.77 Y28.076 E.04347
G1 X133.174 Y29.309 E.04294
G1 X132.447 Y30.446 E.04231
G1 X131.602 Y31.47 E.04161
G1 X130.652 Y32.363 E.04089
G1 X129.613 Y33.113 E.04019
G1 X128.5 Y33.708 E.03955
G1 X127.333 Y34.139 E.03903
G1 X126.127 Y34.401 E.03866
G1 X124.893 Y34.489 E.03882
G1 X96.31 Y34.489 E.89619
G1 X96.31 Y12.169 E.69983
G1 X96.7 Y12.197 F9000
G1 E-3.5 F3600
;WIPE_START
G1 F7200
G1 X99.31 Y12.163 E-1.425
;WIPE_END
G1 E-.075 F3600
G1 X132.681 Y21.458 F9000
G1 E5 F2400
;TYPE:Perimeter
G1 F1200
G1 X132.996 Y21.845 E.01562
G1 X133.274 Y22.412 E.01981
G1 X133.422 Y23.214 E.02559
G1 X133.347 Y23.883 E.02111
G1 X133.274 Y24.186 E.00975
G1 X132.996 Y24.753 E.01981
G1 X132.653 Y25.173 E.017
G1 X132.306 Y25.444 E.0138
G1 X131.982 Y25.619 E.01153
G1 X131.598 Y25.741 E.01263
G1 X131.199 Y25.789 E.0126
G1 X130.8 Y25.759 E.01257
G1 X130.414 Y25.654 E.01255
G1 X130.054 Y25.48 E.01254
G1 X129.731 Y25.243 E.01255
G1 X129.422 Y24.91 E.01425
G1 X129.226 Y24.621 E.01094
G1 X129.042 Y24.214 E.01401
G1 X128.899 Y23.589 E.02009
G1 X128.934 Y22.775 E.02556
G1 X129.208 Y22.017 E.02527
G1 X129.51 Y21.576 E.01677
G1 X129.807 Y21.291 E.01288
G1 X130.209 Y21.037 E.01493
G1 X130.519 Y20.907 E.01054
G1 X130.985 Y20.819 E.01487
G1 X131.308 Y20.814 E.01013
G1 X131.703 Y20.882 E.01256
G1 X132.077 Y21.023 E.01254
G1 X132.42 Y21.229 E.01254
G1 X132.636 Y21.419 E.00902
G1 X132.433 Y21.736 F9000
;TYPE:External perimeter
G1 F1200
G1 X132.657 Y22.011 E.01113
G1 X132.936 Y22.578 E.01981
G1 X133.049 Y23.271 E.022
G1 X132.936 Y24.019 E.02374
G1 X132.657 Y24.586 E.01981
G1 X132.41 Y24.884 E.01214
G1 X132.118 Y25.117 E.0117
G1 X131.858 Y25.262 E.00935
G1 X131.544 Y25.368 E.01039
G1 X131.218 Y25.412 E.01033
G1 X130.889 Y25.393 E.01031
G1 X130.57 Y25.311 E.01033
G1 X130.27 Y25.171 E.01039
G1 X129.998 Y24.976 E.01049
G1 X129.729 Y24.691 E.01228
G1 X129.425 Y24.17 E.01893
G1 X129.267 Y23.505 E.02144
G1 X129.31 Y22.803 E.02206
G1 X129.558 Y22.156 E.02171
G1 X129.781 Y21.838 E.01217
G1 X130.023 Y21.6 E.01065
G1 X130.366 Y21.38 E.01278
G1 X130.606 Y21.274 E.00821
G1 X131.004 Y21.196 E.01272
G1 X131.254 Y21.187 E.00786
G1 X131.579 Y21.238 E.01031
G1 X131.89 Y21.35 E.01036
G1 X132.177 Y21.518 E.01043
G1 X132.387 Y21.697 E.00866
G1 X132.777 Y21.648 F9000
G1 X133.809 Y22.504
;TYPE:Perimeter
;WIDTH:0.642944
G1 F1200
G1 X133.837 Y22.826 E.01611
;WIDTH:0.602283
G1 X133.865 Y23.148 E.01502
;WIDTH:0.599572
G1 X133.846 Y23.552 E.01873
;WIDTH:0.637522
G1 X133.827 Y23.956 E.02
;WIDTH:0.658106
G1 X133.786 Y24.234 E.01438
G1 E-3.5 F3600
;WIPE_START
G1 F7200
G1 X133.827 Y23.956 E-.13357
G1 X133.846 Y23.552 E-.19219
G1 X133.865 Y23.148 E-.19219
G1 X133.837 Y22.826 E-.15341
G1 X133.809 Y22.504 E-.15341
;WIPE_END
G1 E-.67525 F3600
G1 X132.626 Y18.164 F9000
G1 E5 F2400
;TYPE:Solid infill
;WIDTH:0.420009
G1 F1200
G1 X128.577 Y14.116 E.17953
G1 X128.071 Y13.845 E.018
G1 X127.599 Y13.67 E.01579
G1 X132.76 Y18.832 E.22888
G1 X133.064 Y19.669 E.02792
G1 X126.809 Y13.414 E.27737
G1 X126.128 Y13.266 E.02185
G1 X133.291 Y20.429 E.31761
G1 X133.446 Y21.118 E.02214
G1 X125.53 Y13.202 E.35102
G1 X124.956 Y13.161 E.01806
G1 X132.117 Y20.322 E.31755
G1 X131.757 Y20.206 E.01186
G1 X131.418 Y20.156 E.01075
G1 X124.415 Y13.153 E.3105
G1 X123.882 Y13.153 E.01672
G1 X130.884 Y20.156 E.3105
G1 X130.439 Y20.243 E.01424
G1 X123.349 Y13.153 E.31439
G1 X122.816 Y13.153 E.01672
G1 X130.044 Y20.382 E.32053
G1 X129.689 Y20.56 E.01246
G1 X122.282 Y13.153 E.32842
G1 X121.749 Y13.153 E.01672
G1 X129.382 Y20.786 E.33847
G1 X129.281 Y20.861 E.00393
G1 X129.104 Y21.041 E.00793
G1 X121.216 Y13.153 E.34978
G1 X120.682 Y13.153 E.01672
G1 X128.862 Y21.333 E.36272
G1 X128.644 Y21.649 E.01202
G1 X120.149 Y13.153 E.3767
G1 X119.616 Y13.153 E.01672
G1 X128.492 Y22.03 E.39361
G1 X128.34 Y22.411 E.01287
G1 X119.083 Y13.153 E.41052
G1 X118.549 Y13.153 E.01672
G1 X128.26 Y22.864 E.43062
G1 X128.229 Y23.367 E.01578
G1 X118.016 Y13.153 E.45289
G1 X117.483 Y13.153 E.01672
G1 X128.532 Y24.202 E.48994
G1 E-3.5 F3600
;WIPE_START
G1 F7200
G1 X126.41 Y22.081 E-1.425
;WIPE_END
G1 E-.075 F3600
G1 X133.274 Y25.211 F9000
G1 E5 F2400
G1 F1200
G1 X133.464 Y25.402 E.00843
G1 X133.366 Y25.837 E.01398
G1 X133.144 Y25.615 E.00983
G1 X132.856 Y25.86 E.01186
G1 X133.267 Y26.272 E.01824
G1 X133.149 Y26.686 E.01352
G1 X132.537 Y26.074 E.02712
G1 X132.184 Y26.255 E.01243
G1 X133.011 Y27.082 E.03667
G1 X132.873 Y27.477 E.01313
G1 X131.78 Y26.384 E.04847
G1 X131.312 Y26.449 E.01482
G1 X132.717 Y27.855 E.06234
G1 X132.543 Y28.214 E.01252
G1 X130.528 Y26.198 E.08939
G1 E-3.5 F3600
;WIPE_START
G1 F7200
G1 X132.543 Y28.214 E-1.35419
G1 X132.608 Y28.08 E-.07081
;WIPE_END
G1 E-.075 F3600
G1 X132.497 Y28.701 F9000
G1 E5 F2400
G1 F1200
G1 X129.98 Y26.184 E.11158
G1 X129.699 Y26.046 E.00984
G1 X129.263 Y25.719 E.01708
G1 X128.912 Y25.345 E.01609
G1 X128.63 Y24.922 E.01595
G1 X128.545 Y24.749 E.00603
G1 X116.949 Y13.153 E.51418
G1 X116.416 Y13.153 E.01672
G1 X132.183 Y28.92 E.69915
G1 X131.975 Y29.246 E.01211
G1 X115.883 Y13.153 E.71358
G1 X115.35 Y13.153 E.01672
G1 X131.767 Y29.571 E.72801
G1 X131.553 Y29.89 E.01205
G1 X114.816 Y13.153 E.74213
G1 X114.283 Y13.153 E.01672
G1 X131.311 Y30.182 E.75508
G1 X131.07 Y30.474 E.01188
G1 X113.75 Y13.153 E.76803
G1 X113.216 Y13.153 E.01672
G1 X130.827 Y30.764 E.78092
G1 X130.553 Y31.023 E.01183
G1 X112.683 Y13.153 E.79238
G1 X112.15 Y13.153 E.01672
G1 X130.278 Y31.281 E.80384
G1 X130.003 Y31.54 E.01183
G1 X111.617 Y13.153 E.8153
G1 X111.083 Y13.153 E.01672
G1 X129.695 Y31.765 E.82531
G1 X129.385 Y31.989 E.01198
G1 X110.55 Y13.153 E.83522
G1 X110.017 Y13.153 E.01672
G1 X129.076 Y32.212 E.84513
G1 X128.73 Y32.4 E.01233
G1 X109.483 Y13.153 E.85346
G1 X108.95 Y13.153 E.01672
G1 X128.383 Y32.586 E.8617
G1 X128.031 Y32.768 E.01241
G1 X108.417 Y13.153 E.86975
G1 X107.884 Y13.153 E.01672
G1 X127.642 Y32.912 E.87613
G1 X127.252 Y33.055 E.01302
G1 X107.35 Y13.153 E.88251
G1 X106.817 Y13.153 E.01672
G1 X126.841 Y33.177 E.88791
G1 X126.402 Y33.272 E.01406
G1 X106.284 Y13.153 E.89212
G1 X105.75 Y13.153 E.01672
G1 X125.962 Y33.365 E.89625
G1 X125.465 Y33.401 E.01564
G1 X105.217 Y13.153 E.89783
G1 X104.684 Y13.153 E.01672
G1 X124.967 Y33.436 E.89941
G1 X124.442 Y33.444 E.01647
G1 X104.151 Y13.153 E.89976
G1 X103.617 Y13.153 E.01672
G1 X123.908 Y33.444 E.89976
G1 X123.375 Y33.444 E.01672
G1 X103.084 Y13.153 E.89976
G1 X102.551 Y13.153 E.01672
G1 X122.842 Y33.444 E.89976
G1 X122.308 Y33.444 E.01672
G1 X102.017 Y13.153 E.89976
G1 X101.484 Y13.153 E.01672
G1 X121.775 Y33.444 E.89976
G1 X121.242 Y33.444 E.01672
G1 X100.951 Y13.153 E.89976
G1 X100.418 Y13.153 E.01672
G1 X120.709 Y33.444 E.89976
G1 X120.175 Y33.444 E.01672
G1 X99.884 Y13.153 E.89976
G1 X99.351 Y13.153 E.01672
G1 X119.642 Y33.444 E.89976
G1 X119.109 Y33.444 E.01672
G1 X98.818 Y13.153 E.89976
G1 X98.284 Y13.153 E.01672
G1 X118.575 Y33.444 E.89976
G1 X118.042 Y33.444 E.01672
G1 X97.751 Y13.153 E.89976
G1 X97.354 Y13.153 E.01244
G1 X97.354 Y13.29 E.00428
G1 X117.509 Y33.444 E.8937
G1 X116.976 Y33.444 E.01672
G1 X97.354 Y13.823 E.87005
G1 X97.354 Y14.357 E.01672
G1 X116.442 Y33.444 E.84641
G1 X115.909 Y33.444 E.01672
G1 X97.354 Y14.89 E.82276
G1 X97.354 Y15.423 E.01672
G1 X115.376 Y33.444 E.79911
G1 X114.842 Y33.444 E.01672
G1 X97.354 Y15.956 E.77546
G1 X97.354 Y16.49 E.01672
G1 X114.309 Y33.444 E.75182
G1 X113.776 Y33.444 E.01672
G1 X97.354 Y17.023 E.72817
G1 X97.354 Y17.556 E.01672
G1 X113.243 Y33.444 E.70452
G1 X112.709 Y33.444 E.01672
G1 X97.354 Y18.09 E.68088
G1 X97.354 Y18.623 E.01672
G1 X112.176 Y33.444 E.65723
G1 X111.643 Y33.444 E.01672
G1 X97.354 Y19.156 E.63358
G1 X97.354 Y19.689 E.01672
G1 X111.109 Y33.444 E.60993
G1 X110.576 Y33.444 E.01672
G1 X97.354 Y20.223 E.58629
G1 X97.354 Y20.756 E.01672
G1 X110.043 Y33.444 E.56264
G1 X109.51 Y33.444 E.01672
G1 X97.354 Y21.289 E.53899
G1 X97.354 Y21.823 E.01672
G1 X108.976 Y33.444 E.51534
G1 X108.443 Y33.444 E.01672
G1 X97.354 Y22.356 E.4917
G1 X97.354 Y22.889 E.01672
G1 X107.91 Y33.444 E.46805
G1 X107.376 Y33.444 E.01672
G1 X97.354 Y23.422 E.4444
G1 X97.354 Y23.956 E.01672
G1 X106.843 Y33.444 E.42075
G1 X106.31 Y33.444 E.01672
G1 X97.354 Y24.489 E.39711
G1 X97.354 Y25.022 E.01672
G1 X105.777 Y33.444 E.37346
G1 X105.243 Y33.444 E.01672
G1 X97.354 Y25.556 E.34981
G1 X97.354 Y26.089 E.01672
G1 X104.71 Y33.444 E.32617
G1 X104.177 Y33.444 E.01672
G1 X97.354 Y26.622 E.30252
G1 X97.354 Y27.155 E.01672
G1 X103.643 Y33.444 E.27887
G1 X103.11 Y33.444 E.01672
G1 X97.354 Y27.689 E.25522
G1 X97.354 Y28.222 E.01672
G1 X102.577 Y33.444 E.23158
G1 X102.044 Y33.444 E.01672
G1 X97.354 Y28.755 E.20793
G1 X97.354 Y29.289 E.01672
G1 X101.51 Y33.444 E.18428
G1 X100.977 Y33.444 E.01672
G1 X97.354 Y29.822 E.16063
G1 X97.354 Y30.355 E.01672
G1 X100.444 Y33.444 E.13699
G1 X99.91 Y33.444 E.01672
G1 X97.354 Y30.888 E.11334
G1 X97.354 Y31.422 E.01672
G1 X99.377 Y33.444 E.08969
G1 X98.844 Y33.444 E.01672
G1 X97.354 Y31.955 E.06604
G1 X97.354 Y32.488 E.01672
G1 X98.311 Y33.444 E.0424
G1 X97.777 Y33.444 E.01672
G1 X97.185 Y32.852 E.02627
M106 S255
;LAYER_CHANGE
;Z:0.48
;HEIGHT:0.28
;BEFORE_LAYER_CHANGE
G92 E0
;0.48


G1 E-3.5 F3600
;WIPE_START
G1 F7200
G1 X97.777 Y33.444 E-.39804
G1 X98.311 Y33.444 E-.25331
G1 X97.354 Y32.488 E-.64228
G1 X97.354 Y32.212 E-.13137
;WIPE_END
G1 E-.075 F3600
G1 Z.48 F9000
;AFTER_LAYER_CHANGE
;0.48
M104 S210 ; set temperature
G1 X92.623 Y32.212
G1 E5 F2400
;TYPE:Skirt/Brim
;WIDTH:0.42
G1 X92.623 Y11.799 E.85524
G1 X93.017 Y10.216 E.06835
G1 X94.107 Y9.002 E.06835
G1 X96 Y8.422 E.08294
G1 X125.145 Y8.43 E1.22108
G1 X126.887 Y8.589 E.07332
G1 X128.59 Y8.992 E.07329
G1 X130.221 Y9.629 E.07335
G1 X131.753 Y10.483 E.0735
G1 X132.826 Y11.256 E.05542
G1 X134.142 Y12.456 E.07462
G1 X135.544 Y14.15 E.09212
G1 X136.485 Y15.667 E.07479
G1 X137.246 Y17.292 E.07518
G1 X137.714 Y18.634 E.05958
G1 X138.135 Y20.4 E.07604
G1 X138.377 Y22.577 E.09177
G1 X138.377 Y24.021 E.06051
G1 X138.197 Y25.827 E.07604
G1 X137.819 Y27.597 E.07583
G1 X137.097 Y29.666 E.0918
G1 X136.291 Y31.279 E.0756
G1 X135.544 Y32.448 E.0581
G1 X134.432 Y33.833 E.0744
G1 X133.163 Y35.063 E.07404
